packages/icons/48x48/messages.svg

<?xml version="1.0" encoding="UTF-8"?>
<svg width="48" height="48" viewBox="0 0 48 48" fill="#000000" class="customer-ui__icon"
    xmlns="http://www.w3.org/2000/svg" xmlns:xlink="http://www.w3.org/1999/xlink">
    <path fill-rule="evenodd" clip-rule="evenodd"
        d="M14.2 28H10.9C10.3 28 9.9 27.6 9.9 27C9.9 26.4 10.3 26 10.9 26H14.2C14.8 26 15.2 25.6 15.2 25C15.2 24.4 14.8 24 14.2 24H13.5C8.5 24 4.5 20 4.5 15C4.5 10 8.5 6 13.5 6H22.8C27.8 6 31.8 10 31.8 15C31.8 20 27.8 24 22.8 24H20.8C20.2 24 19.8 23.6 19.8 23C19.8 22.4 20.2 22 20.8 22H22.8C26.7 22 29.8 18.9 29.8 15C29.8 11.1 26.7 8 22.8 8H13.5C9.6 8 6.5 11.1 6.5 15C6.5 18.9 9.6 22 13.5 22H14.2C15.9 22 17.2 23.3 17.2 25C17.2 26.7 15.8 28 14.2 28ZM37 42H39.5C40.1 42 40.5 41.6 40.5 41C40.5 40.4 40.1 40 39.5 40H37C36.7 40 36.5 39.8 36.5 39.5C36.5 39.2 36.7 39 37 39H37.5C41.4 39 44.5 35.9 44.5 32C44.5 28.1 41.4 25 37.5 25H30.5C26.6 25 23.5 28.1 23.5 32C23.5 35.9 26.6 39 30.5 39H32C32.6 39 33 38.6 33 38C33 37.4 32.6 37 32 37H30.5C27.7 37 25.5 34.8 25.5 32C25.5 29.2 27.7 27 30.5 27H37.5C40.3 27 42.5 29.2 42.5 32C42.5 34.8 40.3 37 37.5 37H37C35.6 37 34.5 38.1 34.5 39.5C34.5 40.9 35.6 42 37 42ZM28.3 32.7C28.5 32.9 28.7 33 29 33C29.3 33 29.5 32.9 29.8 32.7C30 32.5 30.1 32.3 30.1 32C30.1 31.8 30 31.5 29.8 31.3C29.7 31.3 29.6 31.2 29.6 31.2C29.5425 31.1425 29.5181 31.1181 29.4887 31.1077C29.4669 31.1 29.4425 31.1 29.4 31.1C29.3425 31.0425 29.3181 31.0181 29.2887 31.0077C29.2669 31 29.2425 31 29.2 31C28.9 31 28.5 31.1 28.3 31.3C28.2 31.4 28.1 31.5 28.1 31.6C28 31.7 28 31.9 28 32C28 32.3 28.1 32.5 28.3 32.7ZM34 33C33.7 33 33.5 32.9 33.3 32.7C33.1 32.5 33 32.3 33 32C33 31.9 33 31.7 33.1 31.6C33.1 31.5 33.2 31.4 33.3 31.3C33.7 30.9 34.3 30.9 34.7 31.3C34.8 31.4 34.9 31.5 34.9 31.6C34.9 31.6414 34.9172 31.6828 34.9373 31.7314C34.9657 31.8 35 31.8828 35 32C35 32.3 34.9 32.5 34.7 32.7C34.5 32.9 34.3 33 34 33ZM38.3 32.7C38.5 32.9 38.7 33 39 33C39.3 33 39.5 32.9 39.7 32.7C39.9 32.5 40 32.3 40 32C40 31.7 39.9 31.5 39.7 31.3C39.3 30.9 38.7 30.9 38.3 31.3C38.1 31.5 38 31.7 38 32C38 32.3 38.1 32.5 38.3 32.7ZM22 15.7C22.2 15.9 22.4 16 22.7 16H22.9L22.9 16C22.9575 15.9425 22.9819 15.9181 23.0113 15.9077C23.0331 15.9 23.0575 15.9 23.1 15.9C23.2 15.9 23.3 15.8 23.3 15.8L23.4 15.7C23.45 15.65 23.475 15.6 23.5 15.55C23.525 15.5 23.55 15.45 23.6 15.4C23.7 15.3 23.7 15.1 23.7 15C23.7 14.7 23.6 14.5 23.4 14.3C23.4 14.3 23.4 14.2 23.3 14.2C23.25 14.2 23.225 14.175 23.2 14.15C23.175 14.125 23.15 14.1 23.1 14.1C23.0425 14.0425 23.0181 14.0181 22.9887 14.0077C22.9669 14 22.9425 14 22.9 14C22.6 14 22.2 14.1 22 14.3C21.8 14.5 21.7 14.7 21.7 15C21.7 15.2 21.8 15.5 22 15.7ZM17.7 16H17.5C17.4575 16 17.4331 16 17.4113 15.9923C17.3819 15.9819 17.3575 15.9575 17.3 15.9C17.25 15.9 17.225 15.875 17.2 15.85C17.175 15.825 17.15 15.8 17.1 15.8L17 15.7C16.8 15.5 16.7 15.3 16.7 15C16.7 14.9 16.7 14.7 16.8 14.6C16.85 14.55 16.875 14.5 16.9 14.45C16.925 14.4 16.95 14.35 17 14.3L17.1 14.2C17.15 14.2 17.175 14.175 17.2 14.15C17.225 14.125 17.25 14.1 17.3 14.1C17.3425 14.1 17.3669 14.1 17.3887 14.0923C17.4181 14.0819 17.4425 14.0575 17.5 14C17.8 13.9 18.2 14 18.4 14.3C18.5 14.4 18.6 14.5 18.6 14.6C18.6 14.6414 18.6172 14.6828 18.6373 14.7314C18.6657 14.8 18.7 14.8828 18.7 15C18.7 15.3 18.6 15.5 18.4 15.7C18.3 15.8 18.2 15.9 18.1 15.9C17.9 16 17.8 16 17.7 16ZM12 15.7C12.2 15.9 12.4 16 12.7 16H12.9C12.9575 15.9425 12.9819 15.9181 13.0113 15.9077C13.0331 15.9 13.0575 15.9 13.1 15.9C13.2 15.9 13.3 15.8 13.3 15.8L13.4 15.7C13.6 15.5 13.7 15.3 13.7 15C13.7 14.8828 13.6657 14.8 13.6373 14.7314C13.6172 14.6828 13.6 14.6414 13.6 14.6C13.6 14.5 13.5 14.4 13.4 14.3C13.4 14.3 13.4 14.2 13.3 14.2C13.25 14.2 13.225 14.175 13.2 14.15C13.175 14.125 13.15 14.1 13.1 14.1C13.0425 14.0425 13.0181 14.0181 12.9887 14.0077C12.9669 14 12.9425 14 12.9 14C12.7 14 12.5 14 12.3 14.1C12.2 14.1 12.1 14.2 12 14.3C11.95 14.35 11.925 14.4 11.9 14.45C11.875 14.5 11.85 14.55 11.8 14.6C11.7 14.7 11.7 14.9 11.7 15C11.7 15.2 11.8 15.5 12 15.7Z"
        fill="inherit" />
    <mask id="mask0_252:8781" style="mask-type:alpha" maskUnits="userSpaceOnUse" x="4" y="6" width="41" height="36">
        <path fill-rule="evenodd" clip-rule="evenodd"
            d="M14.2 28H10.9C10.3 28 9.9 27.6 9.9 27C9.9 26.4 10.3 26 10.9 26H14.2C14.8 26 15.2 25.6 15.2 25C15.2 24.4 14.8 24 14.2 24H13.5C8.5 24 4.5 20 4.5 15C4.5 10 8.5 6 13.5 6H22.8C27.8 6 31.8 10 31.8 15C31.8 20 27.8 24 22.8 24H20.8C20.2 24 19.8 23.6 19.8 23C19.8 22.4 20.2 22 20.8 22H22.8C26.7 22 29.8 18.9 29.8 15C29.8 11.1 26.7 8 22.8 8H13.5C9.6 8 6.5 11.1 6.5 15C6.5 18.9 9.6 22 13.5 22H14.2C15.9 22 17.2 23.3 17.2 25C17.2 26.7 15.8 28 14.2 28ZM37 42H39.5C40.1 42 40.5 41.6 40.5 41C40.5 40.4 40.1 40 39.5 40H37C36.7 40 36.5 39.8 36.5 39.5C36.5 39.2 36.7 39 37 39H37.5C41.4 39 44.5 35.9 44.5 32C44.5 28.1 41.4 25 37.5 25H30.5C26.6 25 23.5 28.1 23.5 32C23.5 35.9 26.6 39 30.5 39H32C32.6 39 33 38.6 33 38C33 37.4 32.6 37 32 37H30.5C27.7 37 25.5 34.8 25.5 32C25.5 29.2 27.7 27 30.5 27H37.5C40.3 27 42.5 29.2 42.5 32C42.5 34.8 40.3 37 37.5 37H37C35.6 37 34.5 38.1 34.5 39.5C34.5 40.9 35.6 42 37 42ZM28.3 32.7C28.5 32.9 28.7 33 29 33C29.3 33 29.5 32.9 29.8 32.7C30 32.5 30.1 32.3 30.1 32C30.1 31.8 30 31.5 29.8 31.3C29.7 31.3 29.6 31.2 29.6 31.2C29.5425 31.1425 29.5181 31.1181 29.4887 31.1077C29.4669 31.1 29.4425 31.1 29.4 31.1C29.3425 31.0425 29.3181 31.0181 29.2887 31.0077C29.2669 31 29.2425 31 29.2 31C28.9 31 28.5 31.1 28.3 31.3C28.2 31.4 28.1 31.5 28.1 31.6C28 31.7 28 31.9 28 32C28 32.3 28.1 32.5 28.3 32.7ZM34 33C33.7 33 33.5 32.9 33.3 32.7C33.1 32.5 33 32.3 33 32C33 31.9 33 31.7 33.1 31.6C33.1 31.5 33.2 31.4 33.3 31.3C33.7 30.9 34.3 30.9 34.7 31.3C34.8 31.4 34.9 31.5 34.9 31.6C34.9 31.6414 34.9172 31.6828 34.9373 31.7314C34.9657 31.8 35 31.8828 35 32C35 32.3 34.9 32.5 34.7 32.7C34.5 32.9 34.3 33 34 33ZM38.3 32.7C38.5 32.9 38.7 33 39 33C39.3 33 39.5 32.9 39.7 32.7C39.9 32.5 40 32.3 40 32C40 31.7 39.9 31.5 39.7 31.3C39.3 30.9 38.7 30.9 38.3 31.3C38.1 31.5 38 31.7 38 32C38 32.3 38.1 32.5 38.3 32.7ZM22 15.7C22.2 15.9 22.4 16 22.7 16H22.9L22.9 16C22.9575 15.9425 22.9819 15.9181 23.0113 15.9077C23.0331 15.9 23.0575 15.9 23.1 15.9C23.2 15.9 23.3 15.8 23.3 15.8L23.4 15.7C23.45 15.65 23.475 15.6 23.5 15.55C23.525 15.5 23.55 15.45 23.6 15.4C23.7 15.3 23.7 15.1 23.7 15C23.7 14.7 23.6 14.5 23.4 14.3C23.4 14.3 23.4 14.2 23.3 14.2C23.25 14.2 23.225 14.175 23.2 14.15C23.175 14.125 23.15 14.1 23.1 14.1C23.0425 14.0425 23.0181 14.0181 22.9887 14.0077C22.9669 14 22.9425 14 22.9 14C22.6 14 22.2 14.1 22 14.3C21.8 14.5 21.7 14.7 21.7 15C21.7 15.2 21.8 15.5 22 15.7ZM17.7 16H17.5C17.4575 16 17.4331 16 17.4113 15.9923C17.3819 15.9819 17.3575 15.9575 17.3 15.9C17.25 15.9 17.225 15.875 17.2 15.85C17.175 15.825 17.15 15.8 17.1 15.8L17 15.7C16.8 15.5 16.7 15.3 16.7 15C16.7 14.9 16.7 14.7 16.8 14.6C16.85 14.55 16.875 14.5 16.9 14.45C16.925 14.4 16.95 14.35 17 14.3L17.1 14.2C17.15 14.2 17.175 14.175 17.2 14.15C17.225 14.125 17.25 14.1 17.3 14.1C17.3425 14.1 17.3669 14.1 17.3887 14.0923C17.4181 14.0819 17.4425 14.0575 17.5 14C17.8 13.9 18.2 14 18.4 14.3C18.5 14.4 18.6 14.5 18.6 14.6C18.6 14.6414 18.6172 14.6828 18.6373 14.7314C18.6657 14.8 18.7 14.8828 18.7 15C18.7 15.3 18.6 15.5 18.4 15.7C18.3 15.8 18.2 15.9 18.1 15.9C17.9 16 17.8 16 17.7 16ZM12 15.7C12.2 15.9 12.4 16 12.7 16H12.9C12.9575 15.9425 12.9819 15.9181 13.0113 15.9077C13.0331 15.9 13.0575 15.9 13.1 15.9C13.2 15.9 13.3 15.8 13.3 15.8L13.4 15.7C13.6 15.5 13.7 15.3 13.7 15C13.7 14.8828 13.6657 14.8 13.6373 14.7314C13.6172 14.6828 13.6 14.6414 13.6 14.6C13.6 14.5 13.5 14.4 13.4 14.3C13.4 14.3 13.4 14.2 13.3 14.2C13.25 14.2 13.225 14.175 13.2 14.15C13.175 14.125 13.15 14.1 13.1 14.1C13.0425 14.0425 13.0181 14.0181 12.9887 14.0077C12.9669 14 12.9425 14 12.9 14C12.7 14 12.5 14 12.3 14.1C12.2 14.1 12.1 14.2 12 14.3C11.95 14.35 11.925 14.4 11.9 14.45C11.875 14.5 11.85 14.55 11.8 14.6C11.7 14.7 11.7 14.9 11.7 15C11.7 15.2 11.8 15.5 12 15.7Z"
            fill="white" />
    </mask>
    <g mask="url(#mask0_252:8781)">
        <rect x="0.5" width="48" height="48" fill="inherit" />
    </g>
</svg>

<svg width="48" height="48" class="customer-ui__icon" xmlns="http://www.w3.org/2000/svg"><path fill-rule="evenodd" clip-rule="evenodd" d="M14.2 28h-3.3c-.6 0-1-.4-1-1s.4-1 1-1h3.3c.6 0 1-.4 1-1s-.4-1-1-1h-.7c-5 0-9-4-9-9s4-9 9-9h9.3c5 0 9 4 9 9s-4 9-9 9h-2c-.6 0-1-.4-1-1s.4-1 1-1h2c3.9 0 7-3.1 7-7s-3.1-7-7-7h-9.3c-3.9 0-7 3.1-7 7s3.1 7 7 7h.7c1.7 0 3 1.3 3 3s-1.4 3-3 3ZM37 42h2.5c.6 0 1-.4 1-1s-.4-1-1-1H37c-.3 0-.5-.2-.5-.5s.2-.5.5-.5h.5c3.9 0 7-3.1 7-7s-3.1-7-7-7h-7c-3.9 0-7 3.1-7 7s3.1 7 7 7H32c.6 0 1-.4 1-1s-.4-1-1-1h-1.5c-2.8 0-5-2.2-5-5s2.2-5 5-5h7c2.8 0 5 2.2 5 5s-2.2 5-5 5H37c-1.4 0-2.5 1.1-2.5 2.5S35.6 42 37 42Zm-8.7-9.3c.2.2.4.3.7.3.3 0 .5-.1.8-.3.2-.2.3-.4.3-.7 0-.2-.1-.5-.3-.7-.1 0-.2-.1-.2-.1-.058-.058-.082-.082-.111-.092-.022-.008-.047-.008-.089-.008-.057-.058-.082-.082-.111-.092C29.267 31 29.242 31 29.2 31c-.3 0-.7.1-.9.3-.1.1-.2.2-.2.3-.1.1-.1.3-.1.4 0 .3.1.5.3.7Zm5.7.3c-.3 0-.5-.1-.7-.3-.2-.2-.3-.4-.3-.7 0-.1 0-.3.1-.4 0-.1.1-.2.2-.3.4-.4 1-.4 1.4 0 .1.1.2.2.2.3 0 .041.017.083.037.131.029.069.063.152.063.269 0 .3-.1.5-.3.7-.2.2-.4.3-.7.3Zm4.3-.3c.2.2.4.3.7.3.3 0 .5-.1.7-.3.2-.2.3-.4.3-.7 0-.3-.1-.5-.3-.7-.4-.4-1-.4-1.4 0-.2.2-.3.4-.3.7 0 .3.1.5.3.7ZM22 15.7c.2.2.4.3.7.3h.2c.058-.057.082-.082.111-.092.022-.008.047-.008.089-.008.1 0 .2-.1.2-.1l.1-.1c.05-.05.075-.1.1-.15.025-.05.05-.1.1-.15.1-.1.1-.3.1-.4 0-.3-.1-.5-.3-.7 0 0 0-.1-.1-.1-.05 0-.075-.025-.1-.05-.025-.025-.05-.05-.1-.05-.058-.057-.082-.082-.111-.092C22.967 14 22.942 14 22.9 14c-.3 0-.7.1-.9.3-.2.2-.3.4-.3.7 0 .2.1.5.3.7Zm-4.3.3h-.2c-.043 0-.067 0-.089-.008-.03-.01-.053-.035-.111-.092-.05 0-.075-.025-.1-.05-.025-.025-.05-.05-.1-.05l-.1-.1c-.2-.2-.3-.4-.3-.7 0-.1 0-.3.1-.4.05-.05.075-.1.1-.15.025-.05.05-.1.1-.15l.1-.1c.05 0 .075-.025.1-.05.025-.025.05-.05.1-.05.043 0 .067 0 .089-.008.03-.01.053-.035.111-.092.3-.1.7 0 .9.3.1.1.2.2.2.3 0 .041.017.083.037.131.029.069.063.152.063.269 0 .3-.1.5-.3.7-.1.1-.2.2-.3.2-.2.1-.3.1-.4.1Zm-5.7-.3c.2.2.4.3.7.3h.2c.057-.057.082-.082.111-.092.022-.008.046-.008.089-.008.1 0 .2-.1.2-.1l.1-.1c.2-.2.3-.4.3-.7 0-.117-.034-.2-.063-.269-.02-.048-.037-.09-.037-.131 0-.1-.1-.2-.2-.3 0 0 0-.1-.1-.1-.05 0-.075-.025-.1-.05-.025-.025-.05-.05-.1-.05-.057-.057-.082-.082-.111-.092C12.967 14 12.943 14 12.9 14c-.2 0-.4 0-.6.1-.1 0-.2.1-.3.2-.05.05-.075.1-.1.15-.025.05-.05.1-.1.15-.1.1-.1.3-.1.4 0 .2.1.5.3.7Z" fill="inherit"/><mask id="a" style="mask-type:alpha" maskUnits="userSpaceOnUse" x="4" y="6" width="41" height="36"><path fill-rule="evenodd" clip-rule="evenodd" d="M14.2 28h-3.3c-.6 0-1-.4-1-1s.4-1 1-1h3.3c.6 0 1-.4 1-1s-.4-1-1-1h-.7c-5 0-9-4-9-9s4-9 9-9h9.3c5 0 9 4 9 9s-4 9-9 9h-2c-.6 0-1-.4-1-1s.4-1 1-1h2c3.9 0 7-3.1 7-7s-3.1-7-7-7h-9.3c-3.9 0-7 3.1-7 7s3.1 7 7 7h.7c1.7 0 3 1.3 3 3s-1.4 3-3 3ZM37 42h2.5c.6 0 1-.4 1-1s-.4-1-1-1H37c-.3 0-.5-.2-.5-.5s.2-.5.5-.5h.5c3.9 0 7-3.1 7-7s-3.1-7-7-7h-7c-3.9 0-7 3.1-7 7s3.1 7 7 7H32c.6 0 1-.4 1-1s-.4-1-1-1h-1.5c-2.8 0-5-2.2-5-5s2.2-5 5-5h7c2.8 0 5 2.2 5 5s-2.2 5-5 5H37c-1.4 0-2.5 1.1-2.5 2.5S35.6 42 37 42Zm-8.7-9.3c.2.2.4.3.7.3.3 0 .5-.1.8-.3.2-.2.3-.4.3-.7 0-.2-.1-.5-.3-.7-.1 0-.2-.1-.2-.1-.058-.058-.082-.082-.111-.092-.022-.008-.047-.008-.089-.008-.057-.058-.082-.082-.111-.092C29.267 31 29.242 31 29.2 31c-.3 0-.7.1-.9.3-.1.1-.2.2-.2.3-.1.1-.1.3-.1.4 0 .3.1.5.3.7Zm5.7.3c-.3 0-.5-.1-.7-.3-.2-.2-.3-.4-.3-.7 0-.1 0-.3.1-.4 0-.1.1-.2.2-.3.4-.4 1-.4 1.4 0 .1.1.2.2.2.3 0 .041.017.083.037.131.029.069.063.152.063.269 0 .3-.1.5-.3.7-.2.2-.4.3-.7.3Zm4.3-.3c.2.2.4.3.7.3.3 0 .5-.1.7-.3.2-.2.3-.4.3-.7 0-.3-.1-.5-.3-.7-.4-.4-1-.4-1.4 0-.2.2-.3.4-.3.7 0 .3.1.5.3.7ZM22 15.7c.2.2.4.3.7.3h.2c.058-.057.082-.082.111-.092.022-.008.047-.008.089-.008.1 0 .2-.1.2-.1l.1-.1c.05-.05.075-.1.1-.15.025-.05.05-.1.1-.15.1-.1.1-.3.1-.4 0-.3-.1-.5-.3-.7 0 0 0-.1-.1-.1-.05 0-.075-.025-.1-.05-.025-.025-.05-.05-.1-.05-.058-.057-.082-.082-.111-.092C22.967 14 22.942 14 22.9 14c-.3 0-.7.1-.9.3-.2.2-.3.4-.3.7 0 .2.1.5.3.7Zm-4.3.3h-.2c-.043 0-.067 0-.089-.008-.03-.01-.053-.035-.111-.092-.05 0-.075-.025-.1-.05-.025-.025-.05-.05-.1-.05l-.1-.1c-.2-.2-.3-.4-.3-.7 0-.1 0-.3.1-.4.05-.05.075-.1.1-.15.025-.05.05-.1.1-.15l.1-.1c.05 0 .075-.025.1-.05.025-.025.05-.05.1-.05.043 0 .067 0 .089-.008.03-.01.053-.035.111-.092.3-.1.7 0 .9.3.1.1.2.2.2.3 0 .041.017.083.037.131.029.069.063.152.063.269 0 .3-.1.5-.3.7-.1.1-.2.2-.3.2-.2.1-.3.1-.4.1Zm-5.7-.3c.2.2.4.3.7.3h.2c.057-.057.082-.082.111-.092.022-.008.046-.008.089-.008.1 0 .2-.1.2-.1l.1-.1c.2-.2.3-.4.3-.7 0-.117-.034-.2-.063-.269-.02-.048-.037-.09-.037-.131 0-.1-.1-.2-.2-.3 0 0 0-.1-.1-.1-.05 0-.075-.025-.1-.05-.025-.025-.05-.05-.1-.05-.057-.057-.082-.082-.111-.092C12.967 14 12.943 14 12.9 14c-.2 0-.4 0-.6.1-.1 0-.2.1-.3.2-.05.05-.075.1-.1.15-.025.05-.05.1-.1.15-.1.1-.1.3-.1.4 0 .2.1.5.3.7Z" fill="#fff"/></mask><g mask="url(#a)"><path fill="inherit" d="M.5 0h48v48H.5z"/></g></svg>
